icons/eye-closed-17.svg

<svg width="16" height="17" viewBox="0 0 16 17" fill="none" xmlns="http://www.w3.org/2000/svg">
<path fill-rule="evenodd" clip-rule="evenodd" d="M2.10695 3.93306C2.28915 3.68145 2.64083 3.62518 2.89245 3.80739L13.7673 11.6823C14.019 11.8645 14.0753 12.2162 13.893 12.4678C13.7109 12.7194 13.3592 12.7757 13.1076 12.5935L11.4211 11.3723C10.5092 12.0921 9.3441 12.7004 8 12.7004C6.51399 12.7004 5.2469 11.9567 4.29999 11.1423C3.34791 10.3235 2.66037 9.38313 2.32226 8.87447C2.05013 8.46509 2.04929 7.93713 2.32194 7.5269C2.58749 7.12735 3.06837 6.46186 3.72341 5.7981L2.23263 4.71856C1.98101 4.53636 1.92474 4.18468 2.10695 3.93306ZM4.64654 6.46657C3.99915 7.09814 3.51856 7.75888 3.25887 8.14961C3.2472 8.16717 3.24279 8.18451 3.2428 8.20035C3.24281 8.21621 3.24726 8.23382 3.25915 8.25171C3.56859 8.71723 4.19047 9.5643 5.03353 10.2894C5.88175 11.0188 6.89554 11.5755 8 11.5755C8.89594 11.5755 9.73207 11.2091 10.468 10.6821L8.79646 9.47168C8.56566 9.6166 8.2926 9.70039 7.99996 9.70039C7.17153 9.70039 6.49997 9.02883 6.49997 8.20041C6.49997 8.07625 6.51505 7.95561 6.54349 7.84023L4.64654 6.46657ZM8 4.82547C7.61271 4.82547 7.23753 4.89352 6.87593 5.01375C6.58114 5.11177 6.26271 4.95225 6.16469 4.65746C6.06667 4.36268 6.22619 4.04424 6.52098 3.94623C6.98395 3.79229 7.47899 3.70048 8 3.70048C9.486 3.70048 10.7531 4.44422 11.7 5.2586C12.6521 6.07741 13.3396 7.01776 13.6777 7.52642C13.9502 7.93625 13.9501 8.4647 13.6777 8.87449C13.5948 8.9993 13.4916 9.14875 13.3696 9.3151C13.1859 9.56559 12.8338 9.61969 12.5834 9.43595C12.3329 9.2522 12.2787 8.90018 12.4625 8.64969C12.5733 8.49865 12.6665 8.36353 12.7408 8.25173C12.7624 8.2192 12.7624 8.18167 12.7408 8.14919C12.4314 7.68366 11.8096 6.83659 10.9665 6.11154C10.1182 5.38205 9.10446 4.82547 8 4.82547Z" fill="#272431"/>
</svg>

<svg xmlns="http://www.w3.org/2000/svg" width="16" height="17" viewBox="0 0 16 17"><path fill-rule="evenodd" d="M2.107 3.933a.562.562 0 01.785-.126l10.875 7.875a.562.562 0 11-.66.912l-1.686-1.222C10.51 12.092 9.344 12.7 8 12.7c-1.486 0-2.753-.743-3.7-1.558-.952-.819-1.64-1.759-1.978-2.268a1.213 1.213 0 010-1.347c.265-.4.746-1.065 1.401-1.729l-1.49-1.08a.562.562 0 01-.126-.785zm2.54 2.534A10.658 10.658 0 003.259 8.15a.09.09 0 00-.016.05c0 .016.004.034.016.052.31.465.931 1.312 1.775 2.037.848.73 1.862 1.287 2.966 1.287.896 0 1.732-.367 2.468-.894l-1.672-1.21A1.5 1.5 0 016.543 7.84L4.647 6.466zM8 4.825c-.387 0-.762.069-1.124.189a.562.562 0 01-.355-1.068A4.672 4.672 0 018 3.7c1.486 0 2.753.744 3.7 1.559.952.818 1.64 1.759 1.978 2.267.272.41.272.939 0 1.348-.083.125-.186.275-.308.441a.562.562 0 11-.907-.665c.11-.151.204-.286.278-.398a.09.09 0 000-.103c-.31-.465-.931-1.312-1.774-2.037-.849-.73-1.863-1.287-2.967-1.287z"/></svg>
